sources/design/Outline/ദ_small.svg

<svg:svg xmlns:cc="http://creativecommons.org/ns#" xmlns:dc="http://purl.org/dc/elements/1.1/" xmlns:inkscape="http://www.inkscape.org/namespaces/inkscape" xmlns:rdf="http://www.w3.org/1999/02/22-rdf-syntax-ns#" xmlns:sodipodi="http://sodipodi.sourceforge.net/DTD/sodipodi-0.dtd" xmlns:svg="http://www.w3.org/2000/svg" xml:space="preserve" width="1000" height="1000" version="1.1" style="clip-rule:evenodd;fill-rule:evenodd;image-rendering:optimizeQuality;shape-rendering:geometricPrecision;text-rendering:geometricPrecision" viewBox="0 0 1000 1000" id="svg10" sodipodi:docname="ദ_small.svg" inkscape:version="1.0.1 (3bc2e813f5, 2020-09-07)"><svg:metadata id="metadata14"><rdf:RDF><cc:Work rdf:about=""><dc:format>image/svg+xml</dc:format><dc:type rdf:resource="http://purl.org/dc/dcmitype/StillImage" /><dc:title /></cc:Work></rdf:RDF></svg:metadata><sodipodi:namedview pagecolor="#ffffff" bordercolor="#666666" borderopacity="1" objecttolerance="10" gridtolerance="10" guidetolerance="10" inkscape:pageopacity="0" inkscape:pageshadow="2" inkscape:window-width="1920" inkscape:window-height="1015" id="namedview12" showgrid="false" inkscape:zoom="1.2005384" inkscape:cx="356.61087" inkscape:cy="773.67943" inkscape:window-x="1920" inkscape:window-y="0" inkscape:window-maximized="1" inkscape:current-layer="svg10" showguides="true" inkscape:guide-bbox="true" inkscape:document-rotation="0" inkscape:pagecheckerboard="0"><sodipodi:guide position="0,1000" orientation="0,1" id="guide16" inkscape:label="" inkscape:locked="true" inkscape:color="rgb(0,0,255)" /><sodipodi:guide position="1763.3122,2036.1693" orientation="1000,0" id="guide18" /><sodipodi:guide position="0,200" orientation="0,1" id="guide20" inkscape:label="base" inkscape:locked="true" inkscape:color="rgb(0,0,255)" /><inkscape:grid type="xygrid" id="grid24" originx="-473.37552" originy="-489.69235" /><sodipodi:guide position="0,0" orientation="0,1" id="guide34" inkscape:label="bottom" inkscape:locked="true" inkscape:color="rgb(0,0,255)" /><sodipodi:guide position="225.05109,1693.3186" orientation="0,1" id="guide44" inkscape:label="" inkscape:locked="false" inkscape:color="rgb(0,0,255)" /><sodipodi:guide position="0,900" orientation="0,1" id="guide46" inkscape:label="" inkscape:locked="true" inkscape:color="rgb(0,0,255)" /><sodipodi:guide position="275.81294,322.62765" orientation="1,0" id="guide841" inkscape:label="width" />    </sodipodi:namedview>
 <svg:defs id="defs4"><inkscape:path-effect effect="spiro" id="path-effect856" is_visible="true" lpeversion="1" /><inkscape:path-effect effect="spiro" id="path-effect850" is_visible="true" lpeversion="1" /><inkscape:path-effect effect="spiro" id="path-effect851" is_visible="true" lpeversion="1" />
  <svg:style type="text/css" id="style2">
   
    .fil0 {fill:#EF7F1A;fill-rule:nonzero}
   
  </svg:style>
 <inkscape:path-effect effect="spiro" id="path-effect1214" is_visible="true" lpeversion="1" /><inkscape:path-effect effect="spiro" id="path-effect1195" is_visible="true" lpeversion="1" /><inkscape:path-effect effect="spiro" id="path-effect992" is_visible="true" lpeversion="1" /><inkscape:path-effect effect="spiro" id="path-effect1060" is_visible="true" lpeversion="1" /><inkscape:path-effect effect="spiro" id="path-effect1047" is_visible="true" lpeversion="1" /><inkscape:path-effect effect="spiro" id="path-effect1085" is_visible="true" lpeversion="1" /><inkscape:path-effect effect="spiro" id="path-effect1286" is_visible="true" lpeversion="1" /><inkscape:path-effect effect="spiro" id="path-effect1305" is_visible="true" lpeversion="1" /></svg:defs>
 
<svg:g id="path854"><svg:path style="color:#000000;clip-rule:nonzero;fill:#1a5fb4;fill-rule:nonzero;stroke-linecap:round;stroke-linejoin:round;-inkscape-stroke:none;paint-order:fill stroke markers;shape-rendering:auto" d="M 103.82422,769.39648 C 95.896245,769.35028 87.91781,769.97742 79.966797,771.32617 C 47.977074,776.75269 18.237161,793.71096 -1.863281200000003,820.3398400000001 C -25.264463000000003,851.3415200000001 -31.227722000000004,888.5127400000001 -31.410156000000004,921.60742 C -31.797494000000004,991.87287 -10.207114000000004,1053.17 -15.550781000000004,1107.0137 C -17.199054000000004,1123.622 -21.203298000000004,1140.0502 -27.380859000000004,1155.5547 A 30.003,30.003 0.0 0,0 6.251953099999998,1196.0996 L 87.503906,1180.1934 A 30.003,30.003 0.0 0,0 99.167969,1175.1582 C 106.70493,1180.1416000000002 114.39311000000001,1184.8977 122.38477,1189.1328 C 141.69493,1199.3661000000002 163.84324,1208.2639000000001 188.82031,1210.4961 C 214.21303,1212.7655 241.77379000000002,1207.7594000000001 264.67773,1190.7363 C 290.17889,1171.7829 303.45998,1142.6821 305.71094,1113.4102 C 307.92104,1084.6696 299.75191,1057.5626 286.98242,1034.6172000000001 C 270.67278,1005.3104000000002 246.06432999999998,981.5759700000001 216.92383,965.9570300000001 C 232.02337,945.6702100000001 241.88612,920.8377600000001 241.55664000000002,893.5429700000002 C 241.27054,869.8413900000002 233.22080000000003,847.6072800000002 220.32617000000002,829.1328100000002 C 207.51054000000002,810.7715300000002 190.40064,796.6939000000002 171.68164000000002,786.7558600000002 C 150.93351,775.7405300000003 127.60814000000002,769.5350800000002 103.82422000000001,769.3964800000002 L 103.82422,769.39648 M 103.42969,829.44531 C 117.08221999999999,829.5809999999999 131.16782999999998,833.17788 143.54686999999998,839.75 C 154.81089999999998,845.73015 164.51147999999998,853.9973 171.125,863.47266 C 177.65952,872.83484 181.43886,884.02504 181.5625,894.2675800000001 C 181.613,898.45086 180.97759,902.80123 179.83008,907.1777300000001 C 177.88974000000002,900.8778900000001 175.21684000000002,894.8714000000001 171.74023,889.3437500000001 C 159.40335,869.7286800000002 139.77416,857.7035200000001 118.57031,853.5214800000001 C 92.28885700000001,848.3380000000001 66.646358,855.5079200000001 46.330078,869.4414100000001 C 42.24766,872.2412500000002 38.50783,875.3510000000001 34.925781,878.5918000000001 C 37.664942,870.2501300000001 41.308365,862.7347700000001 46.023437,856.4882800000001 C 56.05149,843.20321 72.685567,833.41952 90.0,830.48242 C 94.375026,829.74027 98.878844,829.40008 103.42969,829.4453100000001 L 103.42969,829.44531 M 100.67187999999999,911.9570299999999 C 102.88944,911.8623299999999 105.01335999999999,912.00263 106.96094,912.38672 C 112.88973,913.5560499999999 118.56433999999999,917.4921499999999 120.95116999999999,921.28711 C 122.18422999999999,923.24762 122.93413,925.54853 123.10351999999999,927.43945 C 123.26924999999999,929.2896099999999 122.89883999999999,931.28969 122.30272999999998,932.60352 C 121.47879999999998,934.41948 118.71154999999999,936.79808 116.79296999999998,937.3418 C 114.87438999999998,937.8855100000001 111.27135999999999,937.311 109.61718999999998,936.19727 A 30.003,30.003 0.0 0,0 63.02929699999998,964.23828 L 69.91406199999997,1029.3223 C 66.25294299999997,1021.5693 63.05497699999997,1014.0866000000001 60.74414099999997,1006.7559 C 55.25482399999997,989.34181 53.69309099999997,971.38994 57.08203099999997,955.76953 C 60.392140999999974,940.51247 69.18108999999997,926.5239700000001 80.26562499999997,918.92187 C 86.50822799999997,914.64052 94.01916799999998,912.24117 100.67187999999997,911.95703 L 100.67187999999999,911.9570299999999 M 136.30077999999997,993.9902299999999 A 30.003,30.003 0.0 0,0 137.24999999999997,995.1894499999999 C 135.77826999999996,995.1748499999999 134.30760999999998,995.1283499999998 132.83593999999997,995.1406499999998 C 132.94101999999995,995.1113499999998 133.04730999999995,995.0981499999998 133.15233999999995,995.0683499999998 C 134.22923999999995,994.7631599999997 135.24767999999995,994.3431899999998 136.30077999999995,993.9902199999998 L 136.30077999999997,993.9902299999999 M 80.09765599999997,1049.8789 A 30.003,30.003 0.0 0,0 82.60742199999997,1052.2089999999998 L 81.87499999999997,1053.4765999999997 C 81.25492299999998,1052.2350999999996 80.71263099999997,1051.1022999999998 80.09765599999997,1049.8788999999997 L 80.09765599999997,1049.8789 M 137.22265999999996,1055.1562999999999 C 143.51862999999997,1055.2372999999998 149.81094999999996,1055.5338 156.05468999999997,1056.2694999999999 C 165.11548999999997,1057.3372 172.78692999999996,1059.0502 178.59374999999997,1061.5762 C 184.20039999999997,1064.0151 188.32218999999998,1067.495 190.21288999999996,1070.3516 C 192.48565999999997,1073.7853 193.12003999999996,1080.4665 191.49022999999997,1084.3573999999999 C 189.90627999999998,1088.1389 185.39728999999997,1092.5209 180.49804999999998,1094.3358999999998 C 175.34803999999997,1096.2438999999997 168.13949999999997,1096.2830999999999 161.86914,1094.0663999999997 C 155.81158,1091.9248999999998 150.01807,1087.6151999999997 146.22460999999998,1082.4296999999997 C 142.43114999999997,1077.2441999999996 140.07784999999998,1070.4157999999998 139.87108999999998,1063.9940999999997 A 30.003,30.003 0.0 0,0 137.22266,1055.1562999999996 L 137.22265999999996,1055.1562999999999 M 245.76952999999997,1109.7362999999998 C 244.48505999999998,1123.091 237.75725999999997,1135.9870999999998 228.88671999999997,1142.5801 C 221.96668999999997,1147.7232999999999 211.66759999999996,1150.6145999999999 200.71874999999997,1150.7987999999998 C 200.92539999999997,1150.7237999999998 201.13539999999998,1150.6761 201.34179999999998,1150.5995999999998 C 220.61896,1143.4578999999999 236.84135999999998,1129.2857999999999 245.76952999999997,1109.7362999999998 M 43.75781199999997,1115.8866999999998 C 44.981772999999976,1119.1094999999998 46.126087999999974,1122.3084 47.04296899999997,1125.4706999999999 C 47.18007099999997,1125.9435999999998 47.245363999999974,1126.4355999999998 47.37695299999997,1126.9101999999998 L 42.13281199999997,1127.9374999999998 C 42.78800699999997,1123.9380999999998 43.30692699999997,1119.9168999999997 43.75781199999997,1115.8866999999998" id="path22420" /></svg:g></svg:svg>

<svg:svg xmlns:cc="http://creativecommons.org/ns#" xmlns:dc="http://purl.org/dc/elements/1.1/" xmlns:inkscape="http://www.inkscape.org/namespaces/inkscape" xmlns:rdf="http://www.w3.org/1999/02/22-rdf-syntax-ns#" xmlns:sodipodi="http://sodipodi.sourceforge.net/DTD/sodipodi-0.dtd" xmlns:svg="http://www.w3.org/2000/svg" xml:space="preserve" width="1000" height="1000" version="1.1" style="clip-rule:evenodd;fill-rule:evenodd;image-rendering:optimizeQuality;shape-rendering:geometricPrecision;text-rendering:geometricPrecision" viewBox="0 0 1000 1000" id="svg10" sodipodi:docname="ദ_small.svg" inkscape:version="1.0.1 (3bc2e813f5, 2020-09-07)"><svg:metadata id="metadata14"><rdf:RDF><cc:Work rdf:about=""><dc:format>image/svg+xml</dc:format><dc:type rdf:resource="http://purl.org/dc/dcmitype/StillImage" /><dc:title /></cc:Work></rdf:RDF></svg:metadata><sodipodi:namedview pagecolor="#ffffff" bordercolor="#666666" borderopacity="1" objecttolerance="10" gridtolerance="10" guidetolerance="10" inkscape:pageopacity="0" inkscape:pageshadow="2" inkscape:window-width="1920" inkscape:window-height="1015" id="namedview12" showgrid="false" inkscape:zoom="1.2005384" inkscape:cx="356.61087" inkscape:cy="773.67943" inkscape:window-x="1920" inkscape:window-y="0" inkscape:window-maximized="1" inkscape:current-layer="svg10" showguides="true" inkscape:guide-bbox="true" inkscape:document-rotation="0" inkscape:pagecheckerboard="0"><sodipodi:guide position="0,1000" orientation="0,1" id="guide16" inkscape:label="" inkscape:locked="true" inkscape:color="rgb(0,0,255)" /><sodipodi:guide position="1763.3122,2036.1693" orientation="1000,0" id="guide18" /><sodipodi:guide position="0,200" orientation="0,1" id="guide20" inkscape:label="base" inkscape:locked="true" inkscape:color="rgb(0,0,255)" /><inkscape:grid type="xygrid" id="grid24" originx="-473.37552" originy="-489.69235" /><sodipodi:guide position="0,0" orientation="0,1" id="guide34" inkscape:label="bottom" inkscape:locked="true" inkscape:color="rgb(0,0,255)" /><sodipodi:guide position="225.05109,1693.3186" orientation="0,1" id="guide44" inkscape:label="" inkscape:locked="false" inkscape:color="rgb(0,0,255)" /><sodipodi:guide position="0,900" orientation="0,1" id="guide46" inkscape:label="" inkscape:locked="true" inkscape:color="rgb(0,0,255)" /><sodipodi:guide position="275.81294,322.62765" orientation="1,0" id="guide841" inkscape:label="width" />    </sodipodi:namedview>
 <svg:defs id="defs4"><inkscape:path-effect effect="spiro" id="path-effect856" is_visible="true" lpeversion="1" /><inkscape:path-effect effect="spiro" id="path-effect850" is_visible="true" lpeversion="1" /><inkscape:path-effect effect="spiro" id="path-effect851" is_visible="true" lpeversion="1" />
  <svg:style type="text/css" id="style2">
   
    .fil0 {fill:#EF7F1A;fill-rule:nonzero}
   
  </svg:style>
 <inkscape:path-effect effect="spiro" id="path-effect1214" is_visible="true" lpeversion="1" /><inkscape:path-effect effect="spiro" id="path-effect1195" is_visible="true" lpeversion="1" /><inkscape:path-effect effect="spiro" id="path-effect992" is_visible="true" lpeversion="1" /><inkscape:path-effect effect="spiro" id="path-effect1060" is_visible="true" lpeversion="1" /><inkscape:path-effect effect="spiro" id="path-effect1047" is_visible="true" lpeversion="1" /><inkscape:path-effect effect="spiro" id="path-effect1085" is_visible="true" lpeversion="1" /><inkscape:path-effect effect="spiro" id="path-effect1286" is_visible="true" lpeversion="1" /><inkscape:path-effect effect="spiro" id="path-effect1305" is_visible="true" lpeversion="1" /></svg:defs>
 
<svg:g id="path854"><svg:path style="color:#000000;clip-rule:nonzero;fill:#1a5fb4;fill-rule:nonzero;stroke-linecap:round;stroke-linejoin:round;-inkscape-stroke:none;shape-rendering:auto" d="m 103.82422,769.39648 c -7.927975,-0.0462 -15.90641,0.58094 -23.857423,1.92969 -31.989723,5.42652 -61.729636,22.38479 -81.8300782,49.01367 -23.4011818,31.00168 -29.3644408,68.1729 -29.5468748,101.26758 -0.387338,70.26545 21.203042,131.56258 15.859375,185.40628 -1.648273,16.6083 -5.652517,33.0365 -11.830078,48.541 a 30.003,30.003 0 0 0 33.6328121,40.5449 l 81.2519529,-15.9062 a 30.003,30.003 0 0 0 11.664063,-5.0352 c 7.536961,4.9834 15.225141,9.7395 23.216801,13.9746 19.31016,10.2333 41.45847,19.1311 66.43554,21.3633 25.39272,2.2694 52.95348,-2.7367 75.85742,-19.7598 25.50116,-18.9534 38.78225,-48.0542 41.03321,-77.3261 2.2101,-28.7406 -5.95903,-55.8476 -18.72852,-78.793 -16.30964,-29.3068 -40.91809,-53.04123 -70.05859,-68.66017 15.09954,-20.28682 24.96229,-45.11927 24.63281,-72.41406 -0.2861,-23.70158 -8.33584,-45.93569 -21.23047,-64.41016 -12.81563,-18.36128 -29.92553,-32.43891 -48.64453,-42.37695 -20.74813,-11.01533 -44.0735,-17.22078 -67.85742,-17.35938 z m -0.39453,60.04883 c 13.65253,0.13569 27.73814,3.73257 40.11718,10.30469 11.26403,5.98015 20.96461,14.2473 27.57813,23.72266 6.53452,9.36218 10.31386,20.55238 10.4375,30.79492 0.0505,4.18328 -0.58491,8.53365 -1.73242,12.91015 -1.94034,-6.29984 -4.61324,-12.30633 -8.08985,-17.83398 -12.33688,-19.61507 -31.96607,-31.64023 -53.16992,-35.82227 -26.281453,-5.18348 -51.923952,1.98644 -72.240232,15.91993 -4.082418,2.79984 -7.822248,5.90959 -11.404297,9.15039 2.739161,-8.34167 6.382584,-15.85703 11.097656,-22.10352 C 56.05149,843.20321 72.685567,833.41952 90,830.48242 c 4.375026,-0.74215 8.878844,-1.08234 13.42969,-1.03711 z m -2.75781,82.51172 c 2.21756,-0.0947 4.34148,0.0456 6.28906,0.42969 5.92879,1.16933 11.6034,5.10543 13.99023,8.90039 1.23306,1.96051 1.98296,4.26142 2.15235,6.15234 0.16573,1.85016 -0.20468,3.85024 -0.80079,5.16407 -0.82393,1.81596 -3.59118,4.19456 -5.50976,4.73828 -1.91858,0.54371 -5.52161,-0.0308 -7.17578,-1.14453 a 30.003,30.003 0 0 0 -46.587893,28.04101 l 6.884765,65.08402 c -3.661119,-7.753 -6.859085,-15.2357 -9.169921,-22.5664 -5.489317,-17.41409 -7.05105,-35.36596 -3.66211,-50.98637 3.31011,-15.25706 12.099059,-29.24556 23.183594,-36.84766 6.242603,-4.28135 13.753543,-6.6807 20.406255,-6.96484 z m 35.6289,82.0332 a 30.003,30.003 0 0 0 0.94922,1.19922 c -1.47173,-0.0146 -2.94239,-0.0611 -4.41406,-0.0488 0.10508,-0.0293 0.21137,-0.0425 0.3164,-0.0723 1.0769,-0.30519 2.09534,-0.72516 3.14844,-1.07813 z m -56.203124,55.88867 a 30.003,30.003 0 0 0 2.509766,2.3301 l -0.732422,1.2676 c -0.620077,-1.2415 -1.162369,-2.3743 -1.777344,-3.5977 z m 57.125004,5.2774 c 6.29597,0.081 12.58829,0.3775 18.83203,1.1132 9.0608,1.0677 16.73224,2.7807 22.53906,5.3067 5.60665,2.4389 9.72844,5.9188 11.61914,8.7754 2.27277,3.4337 2.90715,10.1149 1.27734,14.0058 -1.58395,3.7815 -6.09294,8.1635 -10.99218,9.9785 -5.15001,1.908 -12.35855,1.9472 -18.62891,-0.2695 -6.05756,-2.1415 -11.85107,-6.4512 -15.64453,-11.6367 -3.79346,-5.1855 -6.14676,-12.0139 -6.35352,-18.4356 a 30.003,30.003 0 0 0 -2.64843,-8.8378 z m 108.54687,54.58 c -1.28447,13.3547 -8.01227,26.2508 -16.88281,32.8438 -6.92003,5.1432 -17.21912,8.0345 -28.16797,8.2187 0.20665,-0.075 0.41665,-0.1227 0.62305,-0.1992 19.27716,-7.1417 35.49956,-21.3138 44.42773,-40.8633 z m -202.011718,6.1504 c 1.223961,3.2228 2.368276,6.4217 3.285157,9.584 0.137102,0.4729 0.202395,0.9649 0.333984,1.4395 l -5.244141,1.0273 c 0.655195,-3.9994 1.174115,-8.0206 1.625,-12.0508 z" id="path22354" /></svg:g></svg:svg>
